X: 150
T:Ca the Yowes
S:Rebecca Knorr, Edinburgh
Z:https://nigelgatherer.com/
L:1/8
M:4/4
K:Am
D3 E A4 | G3 E G4 | E3 D E2 c2 | B c3 d4 |
e3 A A2 A2 | G c3 E4 | D4 E G3 | A4 A4 |]

